X:1
T:Morning Song
T:F Major, F minor        Jacob French, 1802
T:Isaac Watts, 1707 (Hymn 79, Book 1)            88. 88. (L. M.) 
T:Transcribed from Harmony of Harmony, 1802.
%%score [ 1 2 3 4 ]
L:1/8
Q:1/4=80
M:2/2
K:F
V:1 treble nm="Tr." snm="Tr."
V:2 treble nm="C." snm="C."
V:3 treble-8 nm="T." snm="T."
V:4 bass nm="B." snm="B."
V:1
 c4 d3 f | e2 f2 f2 ed | c6 f2 | (f3 e d2) c2 | (d3 c B2) A2 | (B3 AG>A) B2 | (c3 d e2) f2 | %7
w: |||||||
 c2 d2 cd e2 | f2 ed (c2 de | fedc d2) e2 | fg fe de dc | d4 c4 | c8 |[M:3/8][Q:1/4=50] z3 | %14
w: |||||||
 c A c | fc d/>e/ | fe d | c2 A | c2 d/e/ | fc d | d2 c/=B/ | c2 [Ac] | f2 c | d2 A | B2 B | c3 | %26
w: ||||||||||||
 c d c/B/ | A2 z | A/d/ c c | cd e | f/e/4d/4c c | c3 |[M:2/2][Q:1/4=125] z8 | z8 | F4 F2 G2 | %35
w: ||||||||O like the|
 A4 d4 | c2 c2 c2 cB | A2 G2 F2 B2 | A4 G4 | G6 AG | F2 A2 B2 d2 | c2 c2 c4 | c4 c2 d2 | %43
w: sun may|I ful- fill Th'ap- *|poin- ted du- ties|of the|day, * *||||
 (e3 g f2) d2 | c4 c4 | c8 ||[K:Ab][Q:1/4=90] z4 A4 | c2 cB A2 c2 | dc BA B2 c2 | A2 c2 e2 e2 | %50
w: |||||||
 e4 c4 | c6 c2 | c2 c2 c2 c2 | c>B A2 e2 e2 | f>e =d2 e2 ed | c4 c4 | c8 || %57
w: |||||||
[K:F][M:2/4][Q:1/4=70] z4 | c2 d f | e3 c | d2 c2 | c3 c | c A [Ac] c | B2 A2 | A3 f | e e/d/ c c | %66
w: |||||||||
 d d c c | c f e f/e/ | d2 c2 | c4- | c2 z2 |[M:2/2] f2 e d e2 c2 | d2 cB c2 A2 | B2 cd c2 F2 | %74
w: |||||Give me thy coun- sel|for my * guide, And|then re- * ceive me|
 B2 AF G2 [FA]2 | FG AB c2 =B2 | c4 =B4 | c8 | z8 | z8 | z4 G2 F G | A>B c2 d2 d2 | d2 d2 d2 d2 | %83
w: to thy * bliss, And|then * re- * cieve me|to thy|bliss.|||All my de-|sires * and hopes be-|side Are faint and|
 c2 d2 c2 B2 | A8 |] %85
w: cold com- pared with|this.|
V:2
 F4 F3 F | G2 A2 B2 G2 | F6 A2 | B6 cA | G6 AF | (E2 G4) G2 | G6 A2 | A2 F2 G2 A2 | F2 G2 (AGFG | %9
w: God of the|mor- ning! at whose|voice The|cheer- ful *|sun makes *|haste * to|rise, And|like a gi- ant|doth re- joice  _ _ _|
 AGFG A2) c2 | AG A2 FE F2 | (G2 F2) G4 | A8 |[M:3/8] z3 | F C F | AF A | BG F/>E/ | F2 F | %18
w: _ _ _ _ _ To|run * his jour- * ney|through * the|skies.||From the fair|cham- * ber|of * the *|east, The|
 AG G/A/ | F2 G/A/ | GA/F/ G/4E/4F/ | E2 F | A2 A | F2 F | G2 G | G3 | F/G/ A/G/ F/E/ | F2 z | %28
w: cir- * cuit *|of his *|race * * be- * *|gins, And|with- out|wea- ri-|ness or|rest,|round * the * whole *|earth,|
 F/A/ G F/E/ | F/>G/A c | c/4B/4A/4G/4F G | A3 |[M:2/2] z8 | z8 | z8 | F4 F2 G2 | A2 A2 F2 C2 | %37
w: round * the whole *|earth * * he|flies  * * * * and|shines.||||O like the|sun may I ful-|
 F2 E2 D2 GF | E2 FE D2 D2 | E6 cB | A2 F2 G2 G2 | A2 F2 E4 | A4 G2 G2 | (A3 B A2) G2 | F4 G4 | %45
w: fill Th'ap- poin- ted *|du- ties * of the|day, With *|rea- dy mind and|ac- tive will,|March on and|keep * * my|hea- venly|
 A8 ||[K:Ab] z4 F4 | A2 G2 F2 F2 | F>E =D2 E2 E2 | F2 F2 G2 A2 | G4 F4 | =E6 E2 | F2 G2 A2 G2 | %53
w: way.|But|I shall rove and|lose * the race, If|God, my sun, should|dis- ap-|pear, And|leave me in this|
 F2 E>F G2 A2 | BA GF G2 G2 | F4 =E4 | F8 ||[K:F][M:2/4] z4 | F2 F F | G3 F | GF E2 | F3 F | %62
w: world's wild * mae, To|fol- * low * eve- ry|wan- dering|star.||Lord, thy com-|mand are|clean * and|pure, En-|
 A F F A | G2 E2 | F3 [FA] | G G F F | F F E E | F F G A | GF E2 | F4- | F2 z2 |[M:2/2] z8 | z8 | %73
w: ligh- tening our be-|clou- ded|eyes; Thy|threa- tenings just, thy|pro- mise sure; Thy|gos- pel makes the|sim- * ple|wise.||||
 z8 | F2 E D E2 C2 | D>F EG F2 G2 | A2 A2 G2 G2 | G2 G2 G4 | F2 E2 D C F2 | GF ED C2 D2 | %80
w: |Give me thy coun- sel|for * my * guide, And|then re- ceive me|to thy bliss;|All my de- sires and|hopes * be- * side Are|
 CD EF E2 D2 | C2 C2 F2 F2 | F2 F2 G2 G2 | F4 E4 | F8 |] %85
w: faint * and * cold com-|pared with this, Are|faint and cold com-|pared with|this.|
V:3
 F4 A3 B | c2 c2 d2 cB | A6 c2 | (dcde f2) c2 | (BABc d2) A2 | (GFGA B2) d2 | c6 c2 | f2 f2 e2 c2 | %8
w: ||||||||
 dc B2 (A3 B | c2 de f2) g2 | fe dc dc BA | (B2 A2) G4 | F8 |[M:3/8] z3 | A F A | cA F | dc B | %17
w: |||||||||
 A2 c | fe d/c/ | dc B/A/ | BA G/F/ | G2 F | c2 A | f2 c | d2 d | c3 | A/G/ F/G/ A/B/ | c2 z | %28
w: |||||||||||
 c/f/ e/d/ c/B/ | A/>G/F G | A/4B/4c/4B/4A G | F3 |[M:2/2] z8 | c4 c2 B2 | A6 G2 | F4 B4 | A6 G2 | %37
w: |||||O like the|sun may|I ful-|fill Th'ap-|
 F2 G2 A2 B2 | c4 =B4 | c6 AB | c2 c2 B2 B2 | A2 A2 G4 | (F2 f2) e2 d2 | (c3 d c2) B2 | A4 G4 | %45
w: poin- ted du- ties|of the|day, * *||||||
 F8 ||[K:Ab] z4 c4 | f2 ed c2 A2 | BA GF G2 A2 | c2 A2 B2 c2 | B4 A4 | G6 G2 | A2 G2 F2 G2 | %53
w: ||||||||
 A>B c2 B2 c2 | dc BA B>d cB | A4 G4 | F8 ||[K:F][M:2/4] z4 | A2 F/G/ A/B/ | c3 A | BA G2 | A3 c | %62
w: |||||||||
 f c A F | d2 ^c2 | d3 A/B/ | c c/B/ A A | B B/A/ G G | F/G/ A/B/ c c | BA G2 | F4- | F2 z2 | %71
w: |||||||||
[M:2/2] z8 | z8 | f2 e d e2 c2 | d2 cB c2 A2 | B2 cd c2 de | (f2 e2) d4 | c8 | z8 | c2 c B A2 G2 | %80
w: ||Give me thy coun- sel|for my * guide, And|then re- * ceive me *|to * thy|bliss.||All my de- sires and|
 A2 B2 c2 B2 | A6 A2 | B6 B2 | A4 G4 | F8 |] %85
w: hopes be- side Are|faint and|cold com-|pared with|this.|
V:4
 F,4 D,3 D, | C,2 F,2 B,,2 C,2 | F,6 F,2 | (B,A,B,C B,2) A,2 | (G,F,G,A, G,2) F,2 | %5
w: |||||
 (E,D,E,F, G,2) G,,2 | C,6 F,G, | A,2 B,2 C2 A,2 | B,A, G,2 F,4- | F,6 E,2 | D,E, F,2 B,,C, D,2 | %11
w: ||||||
 B,,4 C,4 | F,,8 |[M:3/8] z3 | F, F, F, | F,2 D, | B,,C, D,/>E,/ | F,2 F, | F,C B,/A,/ | %19
w: ||||||||
 B,A, G,/F,/ | G,F, E,/D,/ | C,2 F, | F,2 A, | B,2 A, | G,2 G, | C,3 | F,/E,/ D,/E,/ F,/G,/ | %27
w: ||||||||
 A,/>G,/F, z | A,/F,/ C/B,/ A,/G,/ | F,/>E,/D, C, | F,/4G,/4A,/4B,/4C C, | F,3 |[M:2/2] z8 | z8 | %34
w: |||||||
 F,4 F,2 E,2 | D,6 E,2 | F,2 F,2 F,2 E,2 | D,2 E,2 F,2 G,2 | (A,2 F,2) G,4 | C,6 F,G, | %40
w: O like the|sun may|I ful- fill Th;ap-|poin- ted su- ties|of * the|day, * *|
 A,2 [F,A,]2 G,2 G,2 | F,2 F,2 C,4 | F,G, A,B, C2 B,2 | (A,3 G, [F,A,]2) [B,,B,]2 | [C,C]4 C,4 | %45
w: |||||
 [F,,F,]8 ||[K:Ab] z4 F,4 | F,2 C,2 F,2 F,2 | B,,2 B,,2 E,2 C,2 | F,2 F,2 E,2 A,2 | E,4 F,4 | %51
w: ||||||
 C,6 C,2 | F,2 =E,2 F,2 C,2 | F,>G, A,2 E,2 C,2 | B,,2 B,,2 E,2 C,2 | F,4 C,4 | F,,8 || %57
w: ||||||
[K:F][M:2/4] z4 | F,2 D, D, | C,3 F, | B,,2 C,2 | F,3 F, | F, F, F, F, | G,2 A,2 | D,3 [D,F,] | %65
w: ||||||||
 C, C, F, F, | B,, B,, C, C, | F, F, C, A,, | B,,2 C,2 | [F,,F,]4- | [F,,F,]2 z2 |[M:2/2] z8 | %72
w: |||||||
 F,2 E, D, E,2 C,2 | D,2 C,B,, C,2 A,,2 | B,,2 C,D, C,2 F,2 | B,2 A,G, A,2 G,2 | F,2 F,2 G,2 G,2 | %77
w: Give my thy coun- sel|for my * guide, And|then re- * ceive me|to thy * blss, And|then re- ceive me|
 C,2 C,2 C,4 | z8 | z8 | %80
w: to thy bliss.|||
"___________________________________________\nEdited by B. C. Johnston, 2018\n   1.  Measure 16, \nTreble\n:  last two notes changed from dotted 1/8 and 1/16, to dotted 1/16 and 1/32.\n   2.  Measures 17 and 20, \nTreble\n:  third note changed from 1/4 to 1/8.\n   3.  Measure 40, \nBass\n:  first note changed from D-flat to C, an apparent misprint. \n   4.  Measure 79, Counter:  second note changed from 1/8 to 1/4." F,2 E, D, C,2 D,E, | %81
w: All my de- sires and *|
 F,2 F,2 D,2 D,2 | B,,2 B,,2 G,,2 G,,2 | (A,,2 B,,2) C,4 | F,8 |] %85
w: hopes be- side Are|faint and cold com-|pared * with|this.|

